X:65
T:Bull's Eye
C:Bull Harmon
N:Transcribed by Richard A Taylor
R:bluegrass
L:1/8
Q:1/4=120
M:4/4
K:C
| ed B_B AG ED | ED B,D B,A, G,E, | [^f8d8A8E8B,8] |: "Em"AB e2 de e2 |
| Bd eg ^fd fd | ed ee e2 ag | "Bm"^fd fd B4 | "Em"AB e2 de e2 | 
 |Bd eg ^fd fd | ea ed ed B_B | "B7"B_B AG E4 :|
 |: "Em"E,D EE, DE3 | zE DB, D_B, A,G, | E,B, DE DE3 | A,_B, =B,^D "B7"[^f4B4A4] | 
|"Em"BA GE AG ED | GE DB, ED B,/A,/B, | DE DB, EB, D_B, | "B7"B,D _B,/A,/"Em"G, E,4 :| 
|GA Bd B/A3/2 GE | AG ED GE DB, | "B7"DB, A,G, "Em"E,4 |

